plasma/desktoptheme/Materia-Color/icons/kate.svg

<svg xmlns="http://www.w3.org/2000/svg" width="32" height="32" version="1">
 <defs id="materia">
  <style id="current-color-scheme" type="text/css">
   .ColorScheme-Background {color:#181818; } .ColorScheme-ButtonBackground { color:#343434; } .ColorScheme-Highlight { color:#4285f4; } .ColorScheme-Text { color:#dfdfdf; } .ColorScheme-ViewBackground { color:#242424; } .ColorScheme-NegativeText { color:#f44336; } .ColorScheme-PositiveText { color:#4caf50; } .ColorScheme-NeutralText { color:#ff9800; }
  </style>
 </defs>
 <g id="kate">
  <rect style="opacity:0.001" width="32" height="32" x="0" y="0"/>
  <path style="fill:currentColor" class="ColorScheme-Text" d="M 16 2 A 14 14 0 0 0 2 16 A 14 14 0 0 0 16 30 A 14 14 0 0 0 30 16 A 14 14 0 0 0 16 2 z M 14.986328 6.0039062 C 16.183699 5.964683 17.242611 6.1978472 18.0625 6.53125 C 18.253151 6.602717 18.435849 6.6817972 18.603516 6.7734375 C 14.019183 6.9458731 14.771887 9.358639 15.453125 10.710938 C 18.913593 9.7007254 21.945911 8.923079 24.408203 8.0917969 C 22.719919 10.298337 19.911885 13.279177 16.839844 13.671875 C 13.767803 14.064572 10.750672 13.630702 10.072266 15.894531 C 9.4475176 17.97931 11.933916 19.924198 14.212891 19.455078 C 16.091487 19.068373 16.199728 17.357172 15.542969 15.740234 C 15.213048 15.322503 14.893975 14.866879 14.589844 14.365234 C 15.601367 14.307834 15.413583 14.321875 17.128906 14.236328 C 19.685686 16.392767 20.533147 16.840103 25 19.986328 C 22.186432 19.787175 19.802104 19.263596 17.792969 17.876953 L 17.835938 18.009766 C 18.47551 19.598254 20.03592 23.202639 20.332031 26 C 18.908074 23.975401 18.175548 23.232091 15.96875 21.771484 C 13.570772 20.18434 11.502451 19.88154 10.119141 18.148438 C 10.117519 18.146229 10.114899 18.144786 10.113281 18.142578 C 9.8680017 17.83423 9.6370631 17.495228 9.4375 17.080078 C 9.3052653 16.804992 9.2157047 16.540594 9.1484375 16.28125 C 9.1418355 16.257746 9.1350375 16.234367 9.1289062 16.210938 C 9.1079923 16.123431 9.0919558 16.036804 9.078125 15.951172 C 8.7297005 14.105656 9.8942406 12.517483 12.814453 11.513672 C 12.000753 9.053462 7.7203879 9.6520427 7 9.5976562 C 7.8144594 9.1976155 8.5514175 8.8695307 10.230469 7.6660156 C 11.847758 6.5067741 13.5115 6.0522186 14.986328 6.0039062 z"/>
 </g>
 <g id="22-22-kate" transform="translate(27,5)">
  <rect style="opacity:0.001" width="22" height="22" x="5" y="5"/>
  <path style="fill:currentColor" class="ColorScheme-Text" d="m 15.211587,8.003428 c -1.147087,0.03865 -2.441108,0.602556 -3.698999,1.529931 -1.305928,0.962793 -1.8791179,1.225256 -2.512586,1.545282 0.5603014,0.04351 3.889472,-0.635617 4.52235,1.332512 -2.271275,0.803034 -3.7772105,2.073546 -3.506213,3.54993 0.01076,0.0685 0.02323,0.137804 0.0395,0.207808 0.0048,0.01874 0.01006,0.03745 0.01519,0.05625 0.05232,0.207472 0.121977,0.418985 0.224826,0.63905 0.155216,0.332113 0.334834,0.603309 0.525607,0.849984 0.0013,0.0018 0.0033,0.0029 0.0046,0.0047 1.075909,1.386455 2.885214,1.62869 4.750307,2.89838 1.716397,1.168462 2.28614,1.763099 3.393662,3.382745 -0.230309,-2.237844 -1.044391,-5.121295 -1.541836,-6.392061 l -0.03342,-0.106247 c 1.56266,1.109291 3.417136,1.327989 5.605466,1.487308 -3.474218,-2.51693 -4.133353,-2.674633 -6.121959,-4.399751 -1.33414,0.06844 -1.188086,0.0572 -1.974825,0.103123 0.236546,0.401307 0.484714,0.765799 0.741319,1.099978 0.510813,1.293524 0.426625,2.662458 -1.034504,2.971817 -1.772536,0.375288 -4.306583,-1.180591 -3.820668,-2.848381 0.527649,-1.811028 3.474488,-1.463939 5.863852,-1.77809 C 19.042621,13.823543 20.68689,11.765197 22,10 20.084884,10.665013 18.066474,10.960839 15.375,11.768992 14.845149,10.687175 14.459409,8.757001 18.025,8.619055 17.894593,8.545745 17.752495,8.482481 17.60421,8.425309 16.96652,8.158592 16.142922,7.972064 15.211633,8.003442 Z"/>
 </g>
</svg>

<?xml version="1.0" encoding="UTF-8"?>
<svg width="32" height="32" version="1" xmlns="http://www.w3.org/2000/svg">
 <defs id="materia">
  <style id="current-color-scheme" type="text/css">.ColorScheme-Background {color:#181818; } .ColorScheme-ButtonBackground { color:#343434; } .ColorScheme-Highlight { color:#4285f4; } .ColorScheme-Text { color:#dfdfdf; } .ColorScheme-ViewBackground { color:#242424; } .ColorScheme-NegativeText { color:#f44336; } .ColorScheme-PositiveText { color:#4caf50; } .ColorScheme-NeutralText { color:#ff9800; }</style>
 </defs>
 <g id="kate">
  <rect width="32" height="32" opacity=".001"/>
  <path class="ColorScheme-Text" d="m16 2a14 14 0 0 0-14 14 14 14 0 0 0 14 14 14 14 0 0 0 14-14 14 14 0 0 0-14-14zm-1.0137 4.0039c1.1974-0.039223 2.2563 0.19394 3.0762 0.52734 0.19065 0.071467 0.37335 0.15055 0.54102 0.24219-4.5843 0.17244-3.8316 2.5852-3.1504 3.9375 3.4605-1.0102 6.4928-1.7879 8.9551-2.6191-1.6883 2.2065-4.4963 5.1874-7.5684 5.5801-3.072 0.3927-6.0892-0.041173-6.7676 2.2227-0.62475 2.0848 1.8616 4.0297 4.1406 3.5605 1.8786-0.3867 1.9868-2.0979 1.3301-3.7148-0.32992-0.41773-0.64899-0.87336-0.95312-1.375 1.0115-0.0574 0.82374-0.043359 2.5391-0.12891 2.5568 2.1564 3.4042 2.6038 7.8711 5.75-2.8136-0.19915-5.1979-0.72273-7.207-2.1094l0.042969 0.13281c0.63957 1.5885 2.2 5.1929 2.4961 7.9902-1.424-2.0246-2.1565-2.7679-4.3633-4.2285-2.398-1.5871-4.4663-1.8899-5.8496-3.623-0.001622-0.002209-0.004242-0.003652-0.00586-0.00586-0.24528-0.30835-0.47622-0.64735-0.67578-1.0625-0.13223-0.27509-0.2218-0.53948-0.28906-0.79883-0.006602-0.023504-0.0134-0.046883-0.019531-0.070312-0.020914-0.087507-0.03695-0.17413-0.050781-0.25977-0.34842-1.8455 0.81612-3.4337 3.7363-4.4375-0.8137-2.4602-5.0941-1.8616-5.8145-1.916 0.81446-0.40004 1.5514-0.72813 3.2305-1.9316 1.6173-1.1592 3.281-1.6138 4.7559-1.6621z" fill="currentColor"/>
 </g>
 <g id="22-22-kate" transform="translate(27,5)">
  <rect x="5" y="5" width="22" height="22" opacity=".001"/>
  <path class="ColorScheme-Text" d="m15.212 8.0034c-1.1471 0.03865-2.4411 0.60256-3.699 1.5299-1.3059 0.96279-1.8791 1.2253-2.5126 1.5453 0.5603 0.04351 3.8895-0.63562 4.5224 1.3325-2.2713 0.80303-3.7772 2.0735-3.5062 3.5499 0.01076 0.0685 0.02323 0.1378 0.0395 0.20781 0.0048 0.01874 0.01006 0.03745 0.01519 0.05625 0.05232 0.20747 0.12198 0.41898 0.22483 0.63905 0.15522 0.33211 0.33483 0.60331 0.52561 0.84998 0.0013 0.0018 0.0033 0.0029 0.0046 0.0047 1.0759 1.3865 2.8852 1.6287 4.7503 2.8984 1.7164 1.1685 2.2861 1.7631 3.3937 3.3827-0.23031-2.2378-1.0444-5.1213-1.5418-6.3921l-0.03342-0.10625c1.5627 1.1093 3.4171 1.328 5.6055 1.4873-3.4742-2.5169-4.1334-2.6746-6.122-4.3998-1.3341 0.06844-1.1881 0.0572-1.9748 0.10312 0.23655 0.40131 0.48471 0.7658 0.74132 1.1 0.51081 1.2935 0.42662 2.6625-1.0345 2.9718-1.7725 0.37529-4.3066-1.1806-3.8207-2.8484 0.52765-1.811 3.4745-1.4639 5.8639-1.7781 2.3894-0.31415 4.0336-2.3725 5.3467-4.1377-1.9151 0.66501-3.9335 0.96084-6.625 1.769-0.52985-1.0818-0.91559-3.012 2.65-3.1499-0.13041-0.07331-0.2725-0.13657-0.42079-0.19375-0.63769-0.26672-1.4613-0.45324-2.3926-0.42187z" fill="currentColor"/>
 </g>
</svg>
